X: 18482
T: Hyde And Seek
R: jig
M: 6/8
K: Aminor
|:A2e cBA|BcB AEA|A2e cBc|def e3|
A2e cBA|BcB AEA|Bcd cBA|BcB A3:|
|:d2e fed|c2d edc|B2c dcB|cde B3|
d2e fed|c2d edc|B2c dcB|AEA A3:|

